X: 10041
T: THE "GARB OF OLD GAUL," or 42nd Highlanders' Quick Step
B: K\"ohler's Violin Repository, v.1, 1885 p.4 #1
F: http://www.archive.org/details/klersviolinrepos01edin
Z: 2011 John Chambers <jc:trillian.mit.edu>
M: C
L: 1/8
K: Bb
F2 |\
B2(B>B) B2(d>c) | BFDF B2(B>c) | d2(d>d) d2(f>e) | d>cBc d2(d>e) | f2(f>f) f2(g>f) |
e2(e>e) e2(f>e) | d>cBc dfed | c2([cF]>[cF]) F2 :: (c/B/A/G/) | F>GFG A>BAB | c>dcd e2(dc) |
B>cBc d>ede | f>gfg _a2(gf) | gecg fdBf | edcB BAGF | (G>A)(B>c) d2(f/e/)d/c/ |
B2([BD]>[BD]) [B2D2] :|["Last time." F2 | (G>A)(B>c) d2(f/e/)d/c/ | B2 ([bd]>[bd]) [b2d2] |]

%%sep 2 1 500

